X:1
T:Title
%%score { ( 1 3 ) | 2 }
L:1/8
M:4/4
K:Bb
V:1 treble nm="Grand Piano"
V:3 treble 
V:2 bass 
V:1
 z4 z2[Q:1/4=88] [DF]>[DF] | [Fd]>[Ec] [DB]>[DA] [Dc]>[DB] [DF]>[DG] | A>_A =A>_A =A2 F>G | %3
 A>_A =A>B c>=B c>F | d6 [DF]>[DF] | [Fd]>[Ec] [DB]>[DA] [Dc]>[DB] F>[FG] | [FA]>G A>B c4 | %7
 [=Ec]>[EB] [EG]>[Ed] c>A F>B | A2 [=EG]2 F4 | [Fd]2 [Fd]2 [Fd]>[Ec] [DB]>[Ge] | z2 d6 | e2 z2 z4 | %12
 d8 | f3 d f>[Fd] [Fc]>[FB] | [Ge]2 [Ge]6 | d>d d>e d2 c2 |[M:3/4] [DB]6 |] %17
V:2
 z4 z2 [B,,B,]>[B,,B,] | [B,,B,]>[B,,B,] [B,,B,]>[B,,B,] [B,,F,]>[B,,F,] [B,,B,]>[B,,B,] | %2
 [F,CE]>[F,=B,E] [F,CE]>[F,B,E] [F,CE]2 [F,A,E]>[F,_B,E] | %3
 [F,CE]>[F,CE] [F,CE]>[F,G,E] [F,A,E]>[F,_A,E] [F,=A,E]>[F,A,] | [B,F]6 [B,,B,]>[B,,B,] | %5
 [B,,B,]>[B,,B,] [B,,B,]>[B,,B,] [B,,F,]>[B,,F,] [D,B,]>[_D,B,] | %6
 [C,C]>[K:treble][B,C=E] [A,CF]>[K:bass][G,CE] [F,A,F]4 | %7
 [C,B,]>[C,G,] [C,C]>[C,B,][K:treble] [F,A,F]>[F,CF] [A,C]>[B,DF] | [CF]2[K:bass] [C,B,]2 [F,A,]4 | %9
 [B,,B,]2 [B,,B,]2 [B,,B,]>[B,,B,] [B,,B,]>[B,,B,] | [B,,B,]2 [B,,B,]2 [B,,B,]2 [F,B,]2 | %11
 [E,B,]4 [E,B,]4 | [B,,B,]2 [B,,B,]2 [B,,B,]4 | %13
 [B,DF]3 [B,F] [B,DF]>[K:bass][B,,B,] [C,A,]>[D,B,] | [E,B,]2 [E,B,]6 | %15
 [F,B,F]>[F,B,F] [F,B,F]>[F,CF] [F,B,F]2 [F,E]2 |[M:3/4] [B,,F,]6 |] %17
V:3
 x8 | x8 | x8 | x8 | x8 | x8 | x8 | x8 | x8 | x8 | [Fd]2 F2 F2 _A2 | %11
 G->[G-e] [G-e]>[Ge] [GB]2 [^Fc]2 | F2 F2 F4 | x8 | x8 | x8 |[M:3/4] x6 |] %17

